X: 1
T: Ma-oz tsur
O: Jewish liturgy
M: C
L: 1/8
K: D
|: D2 A,2 D2 G2 | F2 E2 D3 A | A2 B2 E2 FG | (F2 E2) D3 z :|
w: Ma-oz tsur y'-shu-a-ti l'-cha na-'e l'-sha be-*ach.
w: Ti-kon bety t'-li-la-ti v'-sham to-da n'-za-be-*ach.
| A3 A B2 c2 | d4 A4 | (d2 c2) (B2 A2) | AG(FG) E4 |
w: L'et ta-chin mat-be-ach mi-*tsar* ha-m'na-be-*ach,
|: F3 G A3 F | E3 F G3 G | F2 E2 D2 G2 | (F2 E2) D4 :|
w: Az eg-mor b'-shir miz-mor, cha-nu-kat ha-miz-be-*ach.
